X:1
T:Canon in D
T:Canon in D
T:Pachelbel
C:Pachelbel
%%score { 1 | 2 }
L:1/8
Q:1/2=50
M:4/4
K:D
V:1 treble nm="Piano" snm="Pno."
V:2 bass 
V:1
 z8 | z8 | z8 | z8 | !4!f4 !3!e4 | !1!d4 !3!c4 | !1!B4 !2!A4 | !1!B4 !2!c4 | [df]4 [ce]4 | %9
 [Bd]4 [Ac]4 | [GB]4 [FA]4 | [GB]4 [Ac]4 | !1!D2 F2 A2 G2 | F2 D2 F2 E2 | D2 B,2 D2 !4!A2 | %15
 G2 B2 A2 !1!G2 | F2 !2!D2 E2 !3!c2 | d2 !3!f2 !5!a2 !1!A2 | !5!B2 !3!G2 !4!A2 !2!F2 | %19
 !1!D2 !5!d2 !4!c2 z2 | !5!dcdD CAEF | Ddc!1!B cfab | !4!gfe!5!g !4!fedc | !3!BAGF EGFE | %24
 DEFG AEAG | !2!FBAG !4!AGFE | DB,!3!Bc dcBA | !3!GFEB AB!4!A!2!G | !1!F2 !5!f2 !2!e4 | %29
 z2 d2 !2!f4 | !4!b4 !2!a4 | b4 c'4 | d'2 !1!d2 c4 | z2 B2 d4 | !1!d4 z2 d2 | d2 f2 e2 a2 | %36
 !5!af/g/ af/g/ a/A/B/c/ !1!d/e/f/g/ | fd/e/ fF/!1!G/ !2!A/B/A/G/ !4!A/F/G/A/ | %38
 !3!GB/A/ GF/E/ !3!F/E/D/E/ F/!1!G/A/B/ | GB/A/ Bc/d/ !1!A/B/c/d/ e/f/g/a/ | %40
 !3!fd/e/ fe/d/ !3!e/!2!c/d/e/ f/e/d/c/ | dB/!3!c/ d!1!D/E/ F/G/!2!F/E/ F/!4!d/c/d/ | %42
 Bd/c/ BA/G/ A/G/F/G/ A/B/c/d/ | Bd/c/ dc/B/ c/d/e/d/ c/d/B/c/ |: d3 !4!a abag | f3 !3!f fgfe | %46
 d3 !4!d d2 A2 | d=cBc !4!^c4 :| d8 |] %49
V:2
 !5!D,!3!F,!2!A,!1!D A,,C,E,A, | B,,D,F,B, F,,A,,C,F, | G,,B,,D,G, D,,F,,A,,D, | %3
 G,,B,,D,G, A,,C,E,A, | D,F,A,D A,,C,E,A, | B,,D,F,B, F,,A,,C,F, | G,,B,,D,G, D,,F,,A,,D, | %7
 G,,B,,D,G, A,,C,E,A, | D,F,A,D A,,C,E,A, | B,,D,F,B, F,,A,,C,F, | G,,B,,D,G, D,,F,,A,,D, | %11
 G,,B,,D,G, A,,C,E,A, | D,4 A,,4 | B,,4 F,,4 | G,,4 D,,4 | G,,4 A,,4 | D,4 A,,4 | B,,4 F,,4 | %18
 G,,4 D,,4 | G,,4 A,,4 | D,4 A,,4 | B,,4 F,,4 | G,,4 D,,4 | G,,4 A,,4 | D,4 A,,4 | B,,4 F,,4 | %26
 G,,4 D,,4 | G,,4 A,,4 | D,4 A,,4 | B,,4 F,,4 | G,,4 D,,4 | G,,4 A,,4 | D,4 A,,4 | B,,4 F,,4 | %34
 G,,4 D,,4 | G,,4 A,,4 | D,4 A,,4 | B,,4 F,,4 | G,,4 D,,4 | G,,4 A,,4 | D,4 A,,4 | B,,4 F,,4 | %42
 G,,4 D,,4 | G,,4 A,,4 |: D,4 A,,4 | B,,4 F,,4 | G,,4 D,,4 | G,,4 A,,4 :| D,8 |] %49

